assets/images/bg-home.svg

<svg xmlns="http://www.w3.org/2000/svg" width="3000" height="1000"><defs><filter id="a" x="-50%" y="-50%" width="200%" height="200%"><feOffset result="offOut" in="SourceImage"/><feGaussianBlur result="blurOut" in="offOut" stdDeviation="5"/><feBlend in="SourceGraphic" in2="blurOut"/></filter></defs><g transform="translate(950 100)" filter="url(#a)"><path fill="#070538" d="M0 0l153.209 128.558L24.65 281.766-128.558 153.21z"/><path fill="#080758" d="M-10 17.32l155.885 90-90 155.885-155.885-90z"/><path fill="#090978" d="M-13.68 37.588L136.67 92.31 81.947 242.66-68.404 187.94z"/><path fill="#0a3088" d="M-10.419 59.088L127.454 83.4l-24.31 137.873-137.874-24.31z"/><path fill="#1a50a8" d="M0 80h120v120H0z"/></g><g transform="translate(900)" filter="url(#a)"><path d="M110-10c50 10 50 10 60 20s20 10 70 10h390v-30zM1100-10c-50 10-50 10-60 20s-20 10-70 10H630v-30z" fill="#070538"/><path d="M120-10c50 10 50 10 60 25s20 15 70 15h380v-40zM1090-10c-50 10-50 10-60 25s-20 15-70 15H630v-40z" fill="#080758"/><path d="M130-10c50 10 50 10 60 30s20 20 70 20h370v-50zM1080-10c-50 10-50 10-60 30s-20 20-70 20H630v-50z" fill="#090978"/><path d="M140-10c50 10 50 10 60 35s20 25 70 25h360v-60zM1070-10c-50 10-50 10-60 35s-20 25-70 25H630v-60z" fill="#0a3088"/><path d="M150-10c50 10 50 10 60 40s20 30 70 30h350v-70zM1060-10c-50 10-50 10-60 40s-20 30-70 30H630v-70z" fill="#1a50a8"/></g></svg>

<?xml version="1.0" encoding="UTF-8"?>
<svg xmlns="http://www.w3.org/2000/svg" width="3000" height="1000">
    <defs>
        <filter id="shadow" x="-50%" y="-50%" width="200%" height="200%">
            <feOffset result="offOut" in="SourceImage" dx="0" dy="0" />
            <feGaussianBlur result="blurOut" in="offOut" stdDeviation="5" />
            <feBlend in="SourceGraphic" in2="blurOut" mode="normal" />
        </filter>
    </defs>
    <g transform="translate(950, 100)" filter="url(#shadow)">
        <rect x="0" y="0" width="200" height="200" fill="#070538" transform="rotate(40)"/>
        <rect x="0" y="20" width="180" height="180" fill="#080758" transform="rotate(30)"/>
        <rect x="0" y="40" width="160" height="160" fill="#090978" transform="rotate(20)"/>
        <rect x="0" y="60" width="140" height="140" fill="#0a3088" transform="rotate(10)"/>
        <rect x="0" y="80" width="120" height="120" fill="#1a50a8" transform="rotate(0)"/>
    </g>
    <!-- <g transform="translate(2050, 600) rotate(180)" filter="url(#shadow)">
        <rect x="0" y="0" width="200" height="200" fill="#070538" transform="rotate(40)"/>
        <rect x="0" y="20" width="180" height="180" fill="#080758" transform="rotate(30)"/>
        <rect x="0" y="40" width="160" height="160" fill="#090978" transform="rotate(20)"/>
        <rect x="0" y="60" width="140" height="140" fill="#0a3088" transform="rotate(10)"/>
        <rect x="0" y="80" width="120" height="120" fill="#1a50a8" transform="rotate(0)"/>
    </g> -->
    <g transform="translate(900, 0)" filter="url(#shadow)">
        <path d="M 110 -10 C 160 0, 160 0, 170 10 S 190 20, 240 20 L 630 20 L 630 -10 Z" fill="#070538" />
        <path d="M 1100 -10 C 1050 0, 1050 0, 1040 10 S 1020 20, 970 20 L 630 20 L 630 -10 Z" fill="#070538" />
        <path d="M 120 -10 C 170 0, 170 0, 180 15 S 200 30, 250 30 L 630 30 L 630 -10 Z" fill="#080758" />
        <path d="M 1090 -10 C 1040 0, 1040 0, 1030 15 S 1010 30, 960 30 L 630 30 L 630 -10 Z" fill="#080758" />
        <path d="M 130 -10 C 180 0, 180 0, 190 20 S 210 40, 260 40 L 630 40 L 630 -10 Z" fill="#090978" />
        <path d="M 1080 -10 C 1030 0, 1030 0, 1020 20 S 1000 40, 950 40 L 630 40 L 630 -10 Z" fill="#090978" />
        <path d="M 140 -10 C 190 0, 190 0, 200 25 S 220 50, 270 50 L 630 50 L 630 -10 Z" fill="#0a3088" />
        <path d="M 1070 -10 C 1020 0, 1020 0, 1010 25 S 990 50, 940 50 L 630 50 L 630 -10 Z" fill="#0a3088" />
        <path d="M 150 -10 C 200 0, 200 0, 210 30 S 230 60, 280 60 L 630 60 L 630 -10 Z" fill="#1a50a8" />
        <path d="M 1060 -10 C 1010 0, 1010 0, 1000 30 S 980 60, 930 60 L 630 60 l 0 -70 Z" fill="#1a50a8" />
    </g>
</svg>
